images/contact.svg

<svg xmlns="http://www.w3.org/2000/svg" width="512" height="512" viewBox="0 0 512 512"><path fill="#fff" d="M49.744 103.407v305.186h412.512v-305.186h-412.512zm365.789 35l-159.586 122.058-159.474-122.058h319.06zm-330.789 35.099l85.504 65.441-85.504 85.503v-150.944zm.356 200.087l113.186-113.186 57.654 44.127 57.375-43.882 112.94 112.939-341.155.002zm342.156-48.495l-85.896-85.896 85.896-65.695v151.591z"/></svg>

<?xml version="1.0" encoding="utf-8"?>
<!-- Generator: Adobe Illustrator 16.0.0, SVG Export Plug-In . SVG Version: 6.00 Build 0)  -->
<!DOCTYPE svg PUBLIC "-//W3C//DTD SVG 1.1//EN" "http://www.w3.org/Graphics/SVG/1.1/DTD/svg11.dtd">
<svg version="1.1" id="Layer_1" xmlns="http://www.w3.org/2000/svg" xmlns:xlink="http://www.w3.org/1999/xlink" x="0px" y="0px"
	 width="512px" height="512px" viewBox="0 0 512 512" enable-background="new 0 0 512 512" xml:space="preserve">
<path id="email-2-icon" fill="#FFFFFF" d="M49.744,103.407v305.186H50.1h411.156h1V103.407H49.744z M415.533,138.407
	L255.947,260.465L96.473,138.407H415.533z M84.744,173.506l85.504,65.441L84.744,324.45V173.506z M85.1,373.593l113.186-113.186
	l57.654,44.127l57.375-43.882l112.94,112.939L85.1,373.593L85.1,373.593z M427.256,325.098l-85.896-85.896l85.896-65.695V325.098z"
	/>
</svg>
